X:1
T:Elgin Rag
C:Paul Rosen
S:Copyright 2004, Paul Rosen
M:4/4 
L:1/8
Q:120
R:Ragtime
K:C
"C"GAcG AcGA|"Ab"_e2_e2c4|"G"d2AB2 AG2|d2d2 BAG2|
"C"GAcG AcGA|"Ab"_e2_e2c4|"G"d2ef2ed2|1"C"c8:|2"C"c6eg|
|:"A7"aege fe^c2|"Dm"dfedA2A2|"G7"BABc dBG2|"C"cBAG E4|
"A7"aege fe^c2|"Dm"dfed A2A2|"G7"BABc dBG2|1"C"c6eg:|2"C"c8|
